assets/images/stats-arrow.svg

<svg width="142" height="244" viewBox="0 0 142 244" fill="none" xmlns="http://www.w3.org/2000/svg">
<path d="M26.7235 5C-1.04154 44.6335 16.0889 105.582 33.439 146.343C48.9124 182.695 82.0691 219.664 120.741 231.196C123.025 231.877 137.969 234.323 134.408 227.178C131.799 221.945 114.618 224.098 110.845 223.987C75.7929 222.953 43.6931 210.191 10.1113 201.769C-2.96793 198.489 12.664 212.224 17.0625 215.124C39.8854 230.168 70.1757 238.555 97.4136 238.996C112.863 239.246 115.948 227.838 119.563 213.469C127.149 183.314 133.914 150.827 137 119.871" stroke="#D9315A" stroke-width="10" stroke-linecap="round"/>
</svg>

<svg width="142" height="244" viewBox="0 0 142 244" fill="none" xmlns="http://www.w3.org/2000/svg"><path d="M26.724 5c-27.766 39.633-10.635 100.582 6.715 141.343 15.473 36.352 48.63 73.321 87.302 84.853 2.284.681 17.228 3.127 13.667-4.018-2.609-5.233-19.79-3.08-23.563-3.191-35.052-1.034-67.152-13.796-100.734-22.218-13.079-3.28 2.553 10.455 6.951 13.355 22.823 15.044 53.114 23.431 80.352 23.872 15.449.25 18.534-11.158 22.149-25.527 7.586-30.155 14.351-62.642 17.437-93.598" stroke="#D9315A" stroke-width="10" stroke-linecap="round"/></svg>
